ui/public/images/briefcase.svg

<svg width="16" height="16" viewBox="0 0 16 16" fill="none" xmlns="http://www.w3.org/2000/svg">
  <g clip-path="url(#clip0)">
    <path d="M10 4.33301C9.63201 4.33301 9.33335 4.03434 9.33335 3.66634V2.66634H6.66669V3.66634C6.66669 4.03434 6.36802 4.33301 6.00002 4.33301C5.63202 4.33301 5.33336 4.03434 5.33336 3.66634V2.66634C5.33336 1.93101 5.93136 1.33301 6.66669 1.33301H9.33335C10.0687 1.33301 10.6667 1.93101 10.6667 2.66634V3.66634C10.6667 4.03434 10.368 4.33301 10 4.33301Z" fill="#D07C75"/>
    <path d="M12 8.33301V8.94634C12 9.21967 11.7733 9.44634 11.5 9.44634C11.2267 9.44634 11 9.21967 11 8.94634V8.33301H5V8.94634C5 9.21967 4.77333 9.44634 4.5 9.44634C4.22667 9.44634 4 9.21967 4 8.94634V8.33301H0V12.833C0 13.8463 0.82 14.6663 1.83333 14.6663H14.1667C15.18 14.6663 16 13.8463 16 12.833V8.33301H12ZM14.1667 3.33301H1.83333C0.82 3.33301 0 4.15301 0 5.16634V7.33301H4V6.49967C4 6.22634 4.22667 5.99967 4.5 5.99967C4.77333 5.99967 5 6.22634 5 6.49967V7.33301H11V6.49967C11 6.22634 11.2267 5.99967 11.5 5.99967C11.7733 5.99967 12 6.22634 12 6.49967V7.33301H16V5.16634C16 4.15301 15.18 3.33301 14.1667 3.33301Z" fill="#D07C75"/>
  </g>
  <defs>
    <clipPath id="clip0">
      <rect width="16" height="16" fill="white"/>
    </clipPath>
  </defs>
</svg>

<svg width="16" height="16" fill="none" xmlns="http://www.w3.org/2000/svg"><g clip-path="url(#a)" fill="#D07C75"><path d="M10 4.3a.7.7 0 0 1-.7-.6v-1H6.7v1a.7.7 0 0 1-1.4 0v-1c0-.8.6-1.4 1.4-1.4h2.6c.8 0 1.4.6 1.4 1.4v1c0 .3-.3.6-.7.6Z"/><path d="M12 8.3V9c0 .3-.2.5-.5.5A.5.5 0 0 1 11 9v-.6H5V9c0 .3-.2.5-.5.5A.5.5 0 0 1 4 9v-.6H0v4.5c0 1 .8 1.9 1.8 1.9h12.4c1 0 1.8-.9 1.8-1.9V8.3h-4Zm2.2-5H1.8c-1 0-1.8.9-1.8 1.9v2.1h4v-.8c0-.3.2-.5.5-.5s.5.2.5.5v.8h6v-.8c0-.3.2-.5.5-.5s.5.2.5.5v.8h4V5.2c0-1-.8-1.9-1.8-1.9Z"/></g><defs><clipPath id="a"><path fill="#fff" d="M0 0h16v16H0z"/></clipPath></defs></svg>
